X: 437
T: Another jig will do
C:anon.
O:Ireland
B:Francis O'Neill: "The Dance Music of Ireland" (1907) no. 437
R:Hop, slip jig
Z:Transcribed by Frank Nordberg - http://www.musicaviva.com
F:http://www.musicaviva.com/abc/tunes/ireland/oneill-1001/oneill-1001-043
7.abc
M:9/8
L:1/8
K:D
ABA A2G F2G|ABA AGF G3|ABA A2G F2G|A2d d2c d3:|A2g f2d e2c|
A2B =c2d c3|A2g f2d e2c|A2d d2c d3|A2g f2d e2c|A2B =c2d c2^c|(dcA) A2
G F2G|A2d d2c d3:|
W:
W:
W:  From Musica Viva - http://www.musicaviva.com
W:  the Internet center for free sheet music downloads.


